src/images/cross.svg

<svg width="72" height="72" viewBox="0 0 72 72" fill="none" xmlns="http://www.w3.org/2000/svg">
<path fill-rule="evenodd" clip-rule="evenodd" d="M52.7516 50.4008L38.3516 36.0007L52.7756 21.5767L50.4236 19.2247L35.9996 33.6487L21.5995 19.2487L19.2475 21.6007L33.6476 36.0007L19.2235 50.4247L21.5756 52.7767L35.9996 38.3527L50.3996 52.7528L52.7516 50.4008Z" fill="white"/>
</svg>

<svg width="72" height="72" fill="none" xmlns="http://www.w3.org/2000/svg"><path fill-rule="evenodd" clip-rule="evenodd" d="M52.752 50.4L38.352 36l14.424-14.423-2.352-2.352L36 33.649l-14.4-14.4-2.353 2.352 14.4 14.4-14.423 14.424 2.352 2.352L36 38.353l14.4 14.4 2.352-2.352z" fill="#fff"/></svg>
